static/assets/img/icons/theme/home/couch.svg

<svg height="24" viewBox="0 0 24 24" width="24" xmlns="http://www.w3.org/2000/svg"><g fill="#000" fill-rule="evenodd"><path d="m6 20h-2c0-2.7614237 2.23857625-4 5-4h6c2.7614237 0 5 1.2385763 5 4h-2c0-1.6568542-1.3431458-2-3-2h-6c-1.65685425 0-3 .3431458-3 2z" fill-rule="nonzero" opacity=".3"/><path d="m23 8h-1.826087c-1.1045695 0-2 .8954305-2 2v2c0 .5522847-.4477152 1-1 1h-12.30434778c-.55228475 0-1-.4477153-1-1v-2c0-1.1045695-.8954305-2-2-2h-1.86956522c0-1.65685425 1.34314575-3 3-3h16c1.6568542 0 3 1.34314575 3 3z" opacity=".3"/><path d="m23 10v5c0 1.6568542-1.3431458 3-3 3h-16c-1.65685425 0-3-1.3431458-3-3v-5h1.86956522v2c0 1.6568542 1.34314575 3 3 3h12.30434778c1.6568543 0 3-1.3431458 3-3v-2z"/></g></svg>

<svg width="24px" height="24px" viewBox="0 0 24 24" version="1.1" xmlns="http://www.w3.org/2000/svg" xmlns:xlink="http://www.w3.org/1999/xlink">
    <title>Icon For Couch</title>
    <g stroke="none" stroke-width="1" fill="none" fill-rule="evenodd">
        <path d="M6,20 L4,20 C4,17.2385763 6.23857625,16 9,16 L15,16 C17.7614237,16 20,17.2385763 20,20 L18,20 C18,18.3431458 16.6568542,18 15,18 L9,18 C7.34314575,18 6,18.3431458 6,20 Z" fill="#000000" fill-rule="nonzero" opacity="0.3"></path>
        <path d="M23,8 L21.173913,8 C20.0693435,8 19.173913,8.8954305 19.173913,10 L19.173913,12 C19.173913,12.5522847 18.7261978,13 18.173913,13 L5.86956522,13 C5.31728047,13 4.86956522,12.5522847 4.86956522,12 L4.86956522,10 C4.86956522,8.8954305 3.97413472,8 2.86956522,8 L1,8 C1,6.34314575 2.34314575,5 4,5 L20,5 C21.6568542,5 23,6.34314575 23,8 Z" fill="#000000" opacity="0.3"></path>
        <path d="M23,10 L23,15 C23,16.6568542 21.6568542,18 20,18 L4,18 C2.34314575,18 1,16.6568542 1,15 L1,10 L2.86956522,10 L2.86956522,12 C2.86956522,13.6568542 4.21271097,15 5.86956522,15 L18.173913,15 C19.8307673,15 21.173913,13.6568542 21.173913,12 L21.173913,10 L23,10 Z" fill="#000000"></path>
    </g>
</svg>
